X:210
T:Horga Dur
M:3/4
L:1/8
K:A
e2 e>f e>d| d>c c2A>c| c>B BE GB | A>G A>B c>d |\
e2 e>f e>d| d>c c2A>c| c>B BE GB|A2 A4:| \
c>d e2c2| d>e f4 | g3 (3fg<a>f| f>e e4 | \
c>d e2c2| d>e f4 | g3 (3fg<a>f| f>e e4 |]
